X:1
T:Christ Was Born On Christmas Day
T:Christ Was Born On Christmas Day
T:Released To The Public Domain
Z:Released To The Public Domain
L:1/8
Q:1/4=100
M:6/8
K:F
V:1 treble nm="Staff"
V:1
 c | c2 A F2 A | c2 d c2 A | c2 d c2 F | F2 G A2 B | c2 B A2 B | G2 G F6 |] %7
w: Sing|out with bliss, His|name is this: Im-|man- u- el! As|twas fore- told in|days of old, by|Ga- bri- el.|

